apps/app.mento.org/public/tokens/PUSO.svg

<svg width="40" height="40" viewBox="0 0 40 40" fill="none" xmlns="http://www.w3.org/2000/svg">
<g clip-path="url(#clip0_4004_57045)">
<path d="M20 40C31.0457 40 40 31.0457 40 20C40 8.95431 31.0457 0 20 0C8.95431 0 0 8.95431 0 20C0 31.0457 8.95431 40 20 40Z" fill="#FEDA3F"/>
<path fill-rule="evenodd" clip-rule="evenodd" d="M29.5872 10.4154C29.8176 11.8426 30.1064 13.2626 30.452 14.6682C30.4304 14.7186 30.4016 14.7618 30.38 14.8122C29.1328 15.4394 27.8784 16.0594 26.6312 16.6866C26.1912 15.6338 25.42 14.949 24.3248 14.6322C23.784 14.5386 23.2576 14.5026 22.7392 14.5242C23.5536 12.8882 24.3752 11.2514 25.1904 9.62257C26.6608 9.86017 28.124 10.1202 29.588 10.4154H29.5872ZM16.396 8.86577C17.564 8.10177 18.7168 7.32337 19.856 6.52337C19.9568 6.50897 20.0504 6.52337 20.144 6.55937C21.3336 7.35217 22.5088 8.15937 23.676 8.97457C22.984 11.0146 22.2992 13.0546 21.6216 15.1018C21.0016 15.4914 20.4608 15.9738 20 16.5434C19.488 15.9522 18.9256 15.4186 18.3056 14.9578C17.6424 12.9754 16.9864 10.993 16.3232 9.01057C16.3304 8.95297 16.3592 8.90977 16.3952 8.86657L16.396 8.86577ZM10.4128 10.4154C11.8112 10.1994 13.1808 9.91057 14.5216 9.55057C14.6296 9.52897 14.7232 9.55057 14.8096 9.62257C15.624 11.2586 16.4456 12.8882 17.2608 14.5242C15.4656 14.3442 14.168 15.065 13.368 16.6866C12.1208 16.0594 10.8664 15.4394 9.61916 14.8122C9.59756 14.7618 9.56876 14.7186 9.54716 14.6682C9.87116 13.2554 10.16 11.8426 10.412 10.4154H10.4128ZM6.51997 20.0026C7.29117 18.7626 8.08396 17.537 8.89916 16.3266C10.312 16.7954 11.732 17.2562 13.152 17.6962C13.224 18.633 13.5272 19.4986 14.0528 20.2914C14.348 20.753 14.6728 21.1994 15.0256 21.625C13.0288 22.3386 11.0248 23.0234 9.00637 23.6794C8.11277 22.5042 7.28316 21.2786 6.51917 20.0034L6.51997 20.0026ZM14.6656 30.4554C13.2528 30.1314 11.84 29.8426 10.4128 29.5906C10.1824 28.2642 9.92956 26.945 9.65596 25.6258C9.60556 25.4818 9.60556 25.3378 9.65596 25.193C11.6024 24.213 13.5344 23.2322 15.4592 22.2378C16.2088 23.0306 16.9296 23.8522 17.6216 24.689C16.7064 26.5994 15.7688 28.4954 14.8104 30.3834C14.76 30.405 14.7168 30.4338 14.6664 30.4554H14.6656ZM20 33.4826C18.7384 32.7186 17.5128 31.9042 16.324 31.0314C16.98 29.1426 17.6 27.2394 18.1984 25.337C18.7104 25.7626 19.2144 26.209 19.712 26.6706C19.9064 26.721 20.0944 26.721 20.2888 26.6706C20.7648 26.2666 21.2256 25.8346 21.6584 25.373C21.716 25.3226 21.7664 25.337 21.8024 25.409C22.4368 27.269 23.0568 29.129 23.6768 30.9954C22.5016 31.889 21.276 32.7186 20.0008 33.4826H20ZM30.344 25.6978C30.0776 26.9954 29.8248 28.293 29.5872 29.5906C28.1888 29.8354 26.7976 30.1026 25.4064 30.3834C25.3128 30.3834 25.2336 30.3546 25.1544 30.3114C24.2104 28.4442 23.2872 26.5698 22.3792 24.689C23.0784 23.8746 23.7704 23.053 24.4696 22.2378C26.4304 23.2106 28.3912 24.1986 30.3448 25.193C30.3952 25.3586 30.3952 25.5322 30.3448 25.6978H30.344ZM31.1008 23.6434C29.0536 23.0162 27.0064 22.3458 24.9736 21.625C25.9904 20.5002 26.6384 19.1882 26.92 17.6962C28.2536 17.249 29.5728 16.7954 30.8848 16.3266C30.9784 16.3122 31.0648 16.341 31.1368 16.3986C31.9368 17.5882 32.7152 18.7922 33.4792 20.0026C32.7152 21.2354 31.9224 22.4466 31.1 23.6426L31.1008 23.6434Z" fill="#010100"/>
</g>
<defs>
<clipPath id="clip0_4004_57045">
<rect width="40" height="40" fill="white"/>
</clipPath>
</defs>
</svg>

<svg xmlns="http://www.w3.org/2000/svg" width="40" height="40" fill="none" viewBox="0 0 40 40"><g clip-path="url(#a)"><path fill="#FEDA3F" d="M20 40c11.046 0 20-8.954 20-20S31.046 0 20 0 0 8.954 0 20s8.954 20 20 20"/><path fill="#010100" fill-rule="evenodd" d="M29.587 10.415q.346 2.144.865 4.253c-.022.05-.05.094-.072.144-1.247.627-2.502 1.247-3.749 1.875q-.662-1.58-2.306-2.055a7.4 7.4 0 0 0-1.586-.108c.815-1.636 1.636-3.273 2.451-4.901 1.47.237 2.934.497 4.398.792m-13.191-1.55q1.751-1.143 3.46-2.342.148-.02.288.036 1.783 1.19 3.532 2.416-1.038 3.058-2.054 6.127-.93.586-1.622 1.441a10.7 10.7 0 0 0-1.694-1.585c-.664-1.983-1.32-3.965-1.983-5.947a.27.27 0 0 1 .072-.144zm-5.983 1.55a39 39 0 0 0 4.109-.864.32.32 0 0 1 .288.072c.814 1.636 1.636 3.265 2.45 4.901q-2.692-.27-3.892 2.163c-1.247-.628-2.502-1.248-3.749-1.875-.021-.05-.05-.093-.072-.144.324-1.413.613-2.825.865-4.253M6.52 20.003a121 121 0 0 1 2.38-3.676c1.412.468 2.832.93 4.252 1.37.072.936.375 1.802.9 2.594q.444.694.974 1.334-2.994 1.07-6.02 2.054a40 40 0 0 1-2.487-3.676zm8.146 10.452a86 86 0 0 0-4.253-.864c-.23-1.327-.483-2.646-.757-3.965a.64.64 0 0 1 0-.433c1.946-.98 3.878-1.96 5.803-2.955.75.793 1.47 1.614 2.163 2.451a276 276 0 0 1-2.812 5.694c-.05.022-.093.05-.144.072M20 33.483a50 50 0 0 1-3.676-2.452 203 203 0 0 0 1.874-5.694q.767.64 1.514 1.334c.194.05.382.05.577 0 .476-.404.937-.836 1.37-1.298q.087-.074.143.036c.635 1.86 1.255 3.72 1.875 5.586A40 40 0 0 1 20 33.483m10.344-7.785q-.4 1.946-.757 3.893c-1.398.244-2.79.512-4.18.792a.5.5 0 0 1-.253-.072 342 342 0 0 1-2.775-5.622c.7-.814 1.391-1.636 2.09-2.451q2.943 1.461 5.876 2.955c.05.166.05.34 0 .505zm.757-2.055a149 149 0 0 1-6.127-2.018 7.95 7.95 0 0 0 1.946-3.929c1.334-.447 2.653-.9 3.965-1.37a.32.32 0 0 1 .252.073q1.198 1.786 2.342 3.604a91 91 0 0 1-2.379 3.64" clip-rule="evenodd"/></g><defs><clipPath id="a"><path fill="#fff" d="M0 0h40v40H0z"/></clipPath></defs></svg>
